img/sign_in-payment.svg

<svg width="42" height="42" viewBox="0 0 42 42" fill="none" xmlns="http://www.w3.org/2000/svg">
<path d="M0.75 21C0.75 32.1661 9.83393 41.25 21 41.25C32.1661 41.25 41.25 32.1661 41.25 21C41.25 9.83393 32.1661 0.75 21 0.75C9.83393 0.75 0.75 9.83393 0.75 21ZM2.58333 21C2.58333 10.8447 10.8447 2.58333 21 2.58333C31.1553 2.58333 39.4167 10.8447 39.4167 21C39.4167 31.1553 31.1553 39.4167 21 39.4167C10.8447 39.4167 2.58333 31.1553 2.58333 21Z" fill="#424242" stroke="#424242" stroke-width="0.5"/>
<path d="M31.2197 27.1896L31.2194 27.1895L24.9288 25.0072L24.5059 21.6236L24.4736 21.366L24.3247 21.5786C24.0503 21.9704 23.6577 22.2753 23.1449 22.4352L23.065 22.4601L23.0754 22.5431L23.466 25.6694C23.466 25.6695 23.466 25.6695 23.466 25.6696C23.5014 25.9592 23.699 26.2047 23.9755 26.2986C23.9756 26.2986 23.9757 26.2987 23.9759 26.2987L30.715 28.6397C31.2906 28.8405 31.8381 29.3004 32.2424 29.8705C32.6467 30.4406 32.9 31.1098 32.9 31.72H32.9C32.905 32.1389 33.2465 32.4773 33.6666 32.4773C34.0883 32.4773 34.4318 32.1355 34.4333 31.7137V31.7131C34.4312 30.7693 34.069 29.7939 33.49 28.9787C32.9109 28.1636 32.1095 27.501 31.2197 27.1896ZM10.7794 27.1894L10.7789 27.1896C9.88904 27.5011 9.08695 28.165 8.50773 28.9815C7.93042 29.7952 7.56901 30.7683 7.56664 31.7093H7.56663V31.7187H7.56668C7.57169 32.1376 7.91318 32.476 8.33329 32.476C8.75329 32.476 9.09491 32.139 9.0999 31.7187H9.09996C9.09996 31.1091 9.35319 30.4403 9.75737 29.8702C10.1615 29.3001 10.7086 28.84 11.2834 28.6385C11.2835 28.6384 11.2836 28.6384 11.2837 28.6384L18.0219 26.3159C18.2976 26.2209 18.4972 25.9772 18.5326 25.6867L18.5326 25.6867L18.5329 25.6833L18.6008 24.8997C18.6517 24.4792 18.3533 24.0969 17.935 24.0447L17.934 24.0446C17.5217 23.9973 17.1304 24.2884 17.0781 24.7103L17.0777 24.7103L17.0774 24.7184L17.0643 25.0236L10.7794 27.1894ZM9.59421 29.7545C9.17471 30.3462 8.90253 31.0508 8.89998 31.7093H8.89996C8.89996 32.0233 8.64619 32.276 8.33329 32.276C8.02142 32.276 7.76809 32.0236 7.76663 31.712C7.76833 30.8193 8.11212 29.8848 8.67085 29.0972C9.23091 28.3077 10.0014 27.6737 10.8447 27.3785C10.8448 27.3784 10.8449 27.3784 10.845 27.3784L17.1939 25.1905L17.2583 25.1683L17.2612 25.1003L17.277 24.7311C17.3172 24.4246 17.6045 24.2084 17.9107 24.2433C18.2195 24.282 18.4406 24.5651 18.402 24.8771L18.402 24.877L18.4017 24.8807L18.3338 25.6642C18.3073 25.8771 18.1605 26.0566 17.9567 26.1268L17.9567 26.1268L11.218 28.4494L11.2176 28.4496C10.5938 28.6682 10.0157 29.16 9.59421 29.7545Z" fill="#424242" stroke="#424242" stroke-width="0.2"/>
<path d="M15.2987 15.0935L15.2987 15.0935C15.3047 18.1831 15.779 20.364 16.7315 21.7745C17.6898 23.1935 19.1221 23.8187 21 23.8187C22.878 23.8187 24.3103 23.1935 25.2687 21.7746C26.2215 20.3643 26.696 18.1838 26.7027 15.0949V15.0948C26.7054 13.5208 26.5379 11.9005 25.0375 10.3987C24.0753 9.43375 22.7136 8.952 21 8.952C19.2866 8.952 17.9249 9.43372 16.9639 10.3974C15.4636 11.9005 15.296 13.5194 15.2987 15.0935ZM23.9492 11.4812L23.9493 11.4813C24.3651 11.8978 24.6672 12.286 24.8672 12.8223C25.068 13.3609 25.1687 14.0566 25.1667 15.0918C25.1614 17.7663 24.8094 19.5665 24.1165 20.696C23.7714 21.2585 23.3419 21.6544 22.8267 21.9107C22.3106 22.1674 21.703 22.2867 20.9987 22.2867C20.2944 22.2867 19.6869 22.1674 19.1707 21.9107C18.6556 21.6544 18.226 21.2585 17.8809 20.696C17.188 19.5665 16.836 17.7663 16.8307 15.0918C16.8287 14.0566 16.9294 13.3609 17.1302 12.8223C17.3302 12.286 17.6323 11.8978 18.0481 11.4813C18.7126 10.8169 19.6711 10.4853 21 10.4853C22.3291 10.4853 23.2875 10.817 23.9492 11.4812Z" fill="#424242" stroke="#424242" stroke-width="0.2"/>
</svg>

<svg width="42" height="42" fill="none" xmlns="http://www.w3.org/2000/svg"><path d="M.75 21C.75 32.166 9.834 41.25 21 41.25S41.25 32.166 41.25 21 32.166.75 21 .75.75 9.834.75 21zm1.833 0C2.583 10.845 10.845 2.583 21 2.583c10.155 0 18.417 8.262 18.417 18.417 0 10.155-8.262 18.417-18.417 18.417-10.155 0-18.417-8.262-18.417-18.417z" fill="#424242" stroke="#424242" stroke-width=".5"/><path d="M31.22 27.19h0l-6.291-2.183-.423-3.383-.032-.258-.15.213a2.222 2.222 0 01-1.18.856l-.079.025.01.083.391 3.126s0 0 0 0c.035.29.233.536.51.63 0 0 0 0 0 0l6.739 2.34c.576.201 1.123.661 1.527 1.232.405.57.658 1.239.658 1.849h0a.767.767 0 001.533-.006v0c-.002-.945-.364-1.92-.943-2.735-.58-.815-1.38-1.478-2.27-1.79zm-20.44 0h-.001c-.89.311-1.692.975-2.271 1.791-.578.814-.939 1.787-.941 2.728h0v.01h0a.767.767 0 001.533 0h0c0-.61.253-1.279.657-1.849.405-.57.952-1.03 1.526-1.232 0 0 0 0 0 0l6.739-2.322a.765.765 0 00.51-.63h0v-.003l.069-.783a.768.768 0 00-.666-.855h-.001a.774.774 0 00-.856.665h0v.008l-.014.306-6.285 2.165zm-1.186 2.564c-.42.592-.691 1.297-.694 1.955h0a.566.566 0 01-1.133.003c.001-.893.345-1.827.904-2.615.56-.79 1.33-1.423 2.174-1.719 0 0 0 0 0 0l6.349-2.188.064-.022.003-.068.016-.369a.574.574 0 01.634-.488c.308.039.53.322.491.634h0v.004l-.068.783a.564.564 0 01-.377.463h0l-6.739 2.322h0c-.624.22-1.202.711-1.624 1.305z" fill="#424242" stroke="#424242" stroke-width=".2"/><path d="M15.299 15.094h0c.006 3.09.48 5.27 1.433 6.68.958 1.42 2.39 2.045 4.268 2.045 1.878 0 3.31-.625 4.269-2.044.953-1.41 1.427-3.591 1.434-6.68v0c.002-1.574-.165-3.195-1.665-4.696-.963-.965-2.324-1.447-4.038-1.447-1.713 0-3.075.482-4.036 1.445-1.5 1.503-1.668 3.122-1.665 4.697zm8.65-3.613h0c.416.417.718.805.918 1.341.201.539.302 1.235.3 2.27-.006 2.674-.358 4.475-1.05 5.604-.346.563-.775.958-1.29 1.215-.516.256-1.124.376-1.828.376-.705 0-1.312-.12-1.828-.376-.515-.257-.945-.652-1.29-1.215-.693-1.13-1.045-2.93-1.05-5.604-.002-1.035.098-1.731.3-2.27.2-.536.501-.924.917-1.34.665-.665 1.623-.997 2.952-.997 1.33 0 2.288.332 2.95.996z" fill="#424242" stroke="#424242" stroke-width=".2"/></svg>
